svgs/sharp-light/chalkboard.svg

<svg xmlns="http://www.w3.org/2000/svg" viewBox="0 0 576 512"><!--! Font Awesome Pro 6.6.0 by @fontawesome - https://fontawesome.com License - https://fontawesome.com/license (Commercial License) Copyright 2024 Fonticons, Inc. --><path d="M48 32L32 32l0 16 0 368 32 0L64 64l448 0 0 352 32 0 0-368 0-16-16 0L48 32zM224 352l0 16 0 80L16 448 0 448l0 32 16 0 544 0 16 0 0-32-16 0-144 0 0-80 0-16-16 0-160 0-16 0zm32 32l128 0 0 56-128 0 0-56z"/></svg>

<svg xmlns="http://www.w3.org/2000/svg" viewBox="0 0 576 512"><!--! Font Awesome Pro 6.4.2 by @fontawesome - https://fontawesome.com License - https://fontawesome.com/license (Commercial License) Copyright 2023 Fonticons, Inc. --><path d="M48 32H32V48 416H64V64H512V416h32V48 32H528 48zM224 352v16 80H16 0v32H16 560h16V448H560 416V368 352H400 240 224zm32 32H384v56H256V384z"/></svg>
